dist/svgs/org-circle-down.svg

<svg xmlns="http://www.w3.org/2000/svg" viewBox="0 0 512 512"><path d="M319 230q6-6 14-6t13 6q6 5 6 13t-6 14l-76 77q-7 5-14 5t-14-5l-76-77q-6-6-6-14t6-13q5-6 13-6t14 6l63 63zM256 0q53 0 99.5 20T437 75t55 81.5 20 99.5-20 99.5-55 81.5-81.5 55-99.5 20-99.5-20T75 437t-55-81.5T0 256t20-99.5T75 75t81.5-55T256 0zm0 474q45 0 84.5-17t69.5-47 47-69.5 17-84.5-17-84.5-47-69.5-69.5-47T256 38t-84.5 17-69.5 47-47 69.5T38 256t17 84.5 47 69.5 69.5 47 84.5 17z"/></svg>

<?xml version="1.0" encoding="UTF-8" standalone="no"?><svg   xmlns:svg="http://www.w3.org/2000/svg"   xmlns="http://www.w3.org/2000/svg"   version="1.1"   width="512"   height="512"   viewBox="0 0 512 512">  <path     d="M319 230Q325 224 333 224T346 230Q352 235 352 243T346 257L270 334Q263 339 256 339T242 334L166 257Q160 251 160 243T166 230Q171 224 179 224T193 230L256 293zM256 0Q309 0 355.5 20T437 75T492 156.5T512 256T492 355.5T437 437T355.5 492T256 512T156.5 492T75 437T20 355.5T0 256T20 156.5T75 75T156.5 20T256 0zM256 474Q301 474 340.5 457T410 410T457 340.5T474 256T457 171.5T410 102T340.5 55T256 38T171.5 55T102 102T55 171.5T38 256T55 340.5T102 410T171.5 457T256 474z"     id="org-circle-down" /></svg>
